X: 27290
T: Miss Walsh
R: jig
M: 6/8
K: Gmajor
|:EAA cAA|eAA cAA|EAA cAA|GAB BGE|
EAA cAA|eAA cAA|aga ecA|BAA A3:|
|:aga ecA|cAc efg|aga ecA|BAF Ace|
aga ecA|cAc efg|aga ecA|BAA A3:|
|:EAA cee|dff cee|EAA cee|BAF AFE|
EAA cee|dff cee|aga ecA|BAA A3:|
DGG BGG|dGG BGG|DGG BGG|FGA AFD|
DGG BGG|dGG BGG|gfg dBG|AGG G2:|
gfg dBG|BGB def|gfg dBG|AGE GBd|
gfg dBG|BGB def|gfg dBG|AGG G2:|
DGG Bdd|cee Bdd|DGG cee|AGE GED|
DGG Bdd|cee Bdd|gfg dBG|AGG G2:|

